docs/icono/buscar.svg

<svg width="23" height="24" viewBox="0 0 23 24" fill="none" xmlns="http://www.w3.org/2000/svg">
<path fill-rule="evenodd" clip-rule="evenodd" d="M16.7667 15.6448C18.083 13.9945 18.8718 11.891 18.8718 9.60001C18.8718 4.29807 14.6472 0 9.43591 0C4.22461 0 0 4.29807 0 9.60001C0 14.9019 4.22461 19.2 9.43591 19.2C11.5452 19.2 13.4929 18.4958 15.0642 17.306L20.9653 23.6265C21.4139 24.107 22.1605 24.1265 22.6328 23.67C23.1051 23.2136 23.1243 22.454 22.6757 21.9735L16.7667 15.6448ZM9.43591 16.8C5.52747 16.8 2.35901 13.5764 2.35901 9.60001C2.35901 5.62354 5.52747 2.39999 9.43591 2.39999C13.3444 2.39999 16.5128 5.62354 16.5128 9.60001C16.5128 13.5764 13.3444 16.8 9.43591 16.8Z" fill="#8A8A8F"/>
</svg>

<?xml version="1.0" encoding="utf-8"?>
<!-- Generator: Adobe Illustrator 17.0.0, SVG Export Plug-In . SVG Version: 6.00 Build 0)  -->
<!DOCTYPE svg PUBLIC "-//W3C//DTD SVG 1.1//EN" "http://www.w3.org/Graphics/SVG/1.1/DTD/svg11.dtd">
<svg version="1.1" id="Capa_1" xmlns="http://www.w3.org/2000/svg" xmlns:xlink="http://www.w3.org/1999/xlink" x="0px" y="0px"
	 width="23px" height="24px" viewBox="0 0 23 24" enable-background="new 0 0 23 24" xml:space="preserve">
<path fill="#8A8A8F" d="M16.767,15.645c1.316-1.65,2.105-3.754,2.105-6.045c0-5.302-4.225-9.6-9.436-9.6C4.225,0,0,4.298,0,9.6
	c0,5.302,4.225,9.6,9.436,9.6c2.109,0,4.057-0.704,5.628-1.894l5.901,6.32c0.449,0.481,1.195,0.5,1.667,0.044
	c0.472-0.456,0.492-1.216,0.043-1.697L16.767,15.645z M9.436,16.8c-3.908,0-7.077-3.224-7.077-7.2c0-3.976,3.168-7.2,7.077-7.2
	c3.908,0,7.077,3.224,7.077,7.2C16.513,13.576,13.344,16.8,9.436,16.8z"/>
</svg>
